src/static/logos/airbrake.svg

<?xml version="1.0" encoding="UTF-8" standalone="no"?>
<svg width="256px" height="255px" viewBox="0 0 256 255" version="1.1" xmlns="http://www.w3.org/2000/svg" xmlns:xlink="http://www.w3.org/1999/xlink" preserveAspectRatio="xMidYMid">
	<g>
		<path d="M128.636514,155.746615 L128.636514,0.512996109 L125.114272,0.512996109 L125.114272,0.581727626 L0.506023346,64.6145992 L0.506023346,125.478848 L0.512,125.478848 L0.512,128.713214 L0.506023346,128.713214 L0.506023346,189.581447 L125.114272,254.328529 L128.957261,254.328529 L128.957261,155.746615 L128.636514,155.746615" fill="#FF8E4A"></path>
		<path d="M129.941416,254.328529 L255.509914,189.581447 L255.509914,64.6145992 L129.622661,0.512996109 L127.379424,0.512996109 L127.379424,254.323549 L129.622661,254.323549" fill="#F48746"></path>
		<path d="M109.097837,87.2551595 L145.293447,87.2551595 L145.293447,146.462879 L109.097837,146.462879 L109.097837,87.2551595 L109.097837,87.2551595 Z" fill="#FF8E4A"></path>
		<path d="M66.1735097,188.397074 L81.0374475,188.397074 C90.4476887,188.397074 93.6461946,186.158817 96.6564358,178.408093 L104.936093,157.054506 L150.095689,157.054506 L158.376342,178.408093 C161.38758,186.158817 164.772358,188.397074 174.181603,188.397074 L188.859268,188.397074 L188.859268,169.282739 L185.848031,169.282739 C182.650521,169.282739 181.143409,168.593432 180.016809,165.492545 L140.500171,66.1266926 L114.720872,66.1266926 L75.016965,165.492545 C73.8883735,168.593432 72.384249,169.282739 69.183751,169.282739 L66.1735097,169.282739 L66.1735097,188.397074 L66.1735097,188.397074 Z M110.581043,138.457152 L122.059206,107.801899 C124.504654,101.087128 127.328623,89.5462101 127.328623,89.5462101 L127.704156,89.5462101 C127.704156,89.5462101 130.527128,101.087128 132.973572,107.801899 L144.451735,138.457152 L110.581043,138.457152 L110.581043,138.457152 Z" fill="#FFFFFF"></path>
		<path d="M231.204856,150.082739 L231.204856,98.2741167 C231.439938,102.797447 234.175253,115.117323 255.509914,126.125323 L255.509914,137.778802 L231.204856,150.082739 L231.204856,150.082739 Z M231.204856,96.9204047 L231.204856,98.2741167 C231.174973,97.6814319 231.186926,97.2262101 231.204856,96.9204047 L231.204856,96.9204047 L231.204856,96.9204047 Z M231.246693,96.4811206 C231.246693,96.4811206 231.223782,96.6345214 231.204856,96.9204047 L231.204856,96.4811206 L231.246693,96.4811206 L231.246693,96.4811206 Z" fill="#D4763C"></path>
		<path d="M231.155051,94.3016342 C231.141105,95.2947549 231.213821,96.1962335 231.204856,96.347642 C231.186926,96.5956732 228.984529,112.441774 255.509914,126.125323 L255.509914,65.26207 C232.184031,77.2970584 231.06042,91.0035175 231.155051,94.3016342" fill="#FF8E4A"></path>
	</g>
</svg>

<svg width="256" height="255" xmlns="http://www.w3.org/2000/svg" preserveAspectRatio="xMidYMid"><path d="M128.637 155.747V.513h-3.523v.069L.506 64.615v60.864h.006v3.234H.506v60.868l124.608 64.748h3.843v-98.582h-.32" fill="#FF8E4A"/><path d="M129.941 254.329L255.51 189.58V64.615L129.623.513h-2.244v253.81h2.244" fill="#F48746"/><path d="M109.098 87.255h36.195v59.208h-36.195V87.255z" fill="#FF8E4A"/><path d="M66.174 188.397h14.863c9.41 0 12.61-2.238 15.62-9.989l8.28-21.353h45.159l8.28 21.353c3.012 7.75 6.396 9.99 15.806 9.99h14.677v-19.115h-3.011c-3.197 0-4.705-.69-5.831-3.79L140.5 66.127h-25.78l-39.703 99.366c-1.129 3.1-2.633 3.79-5.833 3.79h-3.01v19.114zm44.407-49.94l11.478-30.655c2.446-6.715 5.27-18.256 5.27-18.256h.375s2.823 11.541 5.27 18.256l11.478 30.655H110.58z" fill="#FFF"/><path d="M231.205 150.083V98.274c.235 4.523 2.97 16.843 24.305 27.851v11.654l-24.305 12.304zm0-53.163v1.354a12.462 12.462 0 010-1.354zm.042-.439s-.023.154-.042.44v-.44h.042z" fill="#D4763C"/><path d="M231.155 94.302c-.014.993.059 1.894.05 2.046-.018.248-2.22 16.094 24.305 29.777V65.262c-23.326 12.035-24.45 25.742-24.355 29.04" fill="#FF8E4A"/></svg>
